assets/images/Telegram.svg

<svg width="21" height="18" viewBox="0 0 21 18" fill="none" xmlns="http://www.w3.org/2000/svg">
<path d="M8.20459 11.6729L7.86709 16.3635C8.34989 16.3635 8.55899 16.1585 8.80969 15.9124L11.0733 13.7746L15.7638 17.169C16.624 17.6428 17.2301 17.3933 17.4621 16.387L20.5409 2.13058L20.5417 2.12968C20.8146 0.873076 20.0819 0.381676 19.2438 0.689976L1.14679 7.53678C-0.0883115 8.01048 -0.0696114 8.69088 0.936889 8.99918L5.56349 10.4213L16.3103 3.77608C16.8161 3.44518 17.276 3.62828 16.8977 3.95928L8.20459 11.6729Z" fill="white"/>
</svg>

<svg xmlns="http://www.w3.org/2000/svg" width="21" height="18" fill="none"><path fill="#fff" d="m8.205 11.673-.338 4.69c.483 0 .692-.204.943-.45l2.263-2.138 4.69 3.394c.861.474 1.467.224 1.7-.782L20.54 2.131V2.13c.274-1.257-.46-1.748-1.297-1.44L1.147 7.537C-.088 8.01-.07 8.69.937 8.999l4.626 1.422L16.31 3.776c.506-.33.966-.148.588.183z"/></svg>
